lib/brands/icons/gmail.svg

<svg xmlns="http://www.w3.org/2000/svg" fill="none" aria-hidden="true" viewBox="0 0 48 48"><g id="gmail-Icon"><g id="Group"><path id="Vector" fill="#4285F4" d="M8.45455 37.1316H14.1818V23.2225L6 17.0861V34.677C6 36.0332 7.09841 37.1316 8.45455 37.1316Z"/><path id="Vector_2" fill="#34A853" d="M33.8184 37.1316H39.5456C40.9018 37.1316 42.0002 36.0332 42.0002 34.677V17.0861L33.8184 23.2225V37.1316Z"/><path id="Vector_3" fill="#FBBC04" d="M33.8184 12.5862V23.2225L42.0002 17.0862V13.8134C42.0002 10.78 38.5372 9.04752 36.1093 10.868L33.8184 12.5862Z"/><path id="Vector_4" fill="#EA4335" fill-rule="evenodd" d="M14.1816 23.2225V12.5861L23.9998 19.9498L33.818 12.5861V23.2225L23.9998 30.5861L14.1816 23.2225Z" clip-rule="evenodd"/><path id="Vector_5" fill="#C5221F" d="M6 13.8134V17.0862L14.1818 23.2225V12.5862L11.8909 10.868C9.46296 9.04752 6 10.78 6 13.8134Z"/></g></g></svg>

<svg xmlns="http://www.w3.org/2000/svg" fill="none" aria-hidden="true" viewBox="0 0 48 48"><path fill="#4285F4" d="M8.455 37.132h5.727v-13.91L6 17.087v17.591a2.454 2.454 0 0 0 2.455 2.455Z"/><path fill="#34A853" d="M33.818 37.132h5.728A2.454 2.454 0 0 0 42 34.677v-17.59l-8.182 6.136v13.909Z"/><path fill="#FBBC04" d="M33.818 12.586v10.636L42 17.087v-3.273c0-3.033-3.463-4.765-5.89-2.945l-2.292 1.718Z"/><path fill="#EA4335" fill-rule="evenodd" d="M14.182 23.223V12.585L24 19.95l9.818-7.364v10.636L24 30.587l-9.818-7.363Z" clip-rule="evenodd"/><path fill="#C5221F" d="M6 13.813v3.273l8.182 6.137V12.585l-2.291-1.718C9.463 9.048 6 10.78 6 13.813Z"/></svg>
